chat/static/images/icons/settings.svg

<svg viewBox="0 0 110 110" version="1.1" width="110" height="110" xmlns="http://www.w3.org/2000/svg">
  <g transform="matrix(1.0003568,0,0,1.0149704,-8.7433482,90.535089)">
    <path d="m 63.7207,12.5488 c 1.2695,0 2.4902,-0.1465 3.8086,-0.2441 l 2.7832,5.3711 c 0.5371,1.0742 1.6113,1.6601 2.9785,1.4648 1.2207,-0.2441 2.0508,-1.123 2.2461,-2.4414 l 0.8301,-5.9082 c 2.4414,-0.6348 4.834,-1.56248 7.1289,-2.58788 l 4.3945,3.95508 c 0.9278,0.8789 2.0996,1.0742 3.3203,0.3906 1.0743,-0.5859 1.5137,-1.7578 1.2696,-3.02732 L 91.2598,3.66211 c 2.0507,-1.41602 4.0527,-3.027344 5.8593,-4.83399 l 5.4199,2.29493 c 1.221,0.48828 2.393,0.24414 3.32,-0.878909 0.83,-0.878907 0.928,-2.148441 0.196,-3.222661 l -3.174,-5.07812 c 1.465,-2.05076 2.637,-4.24806 3.76,-6.59176 l 6.005,0.2929 c 1.27,0.0489 2.295,-0.6347 2.735,-1.8554 0.39,-1.2207 0.049,-2.3926 -0.977,-3.1739 l -4.687,-3.7109 c 0.635,-2.3438 1.123,-4.8828 1.367,-7.5195 l 5.615,-1.7578 c 1.27,-0.4395 2.002,-1.3672 2.002,-2.6856 0,-1.2695 -0.732,-2.1973 -2.002,-2.6367 l -5.615,-1.8067 c -0.244,-2.6367 -0.732,-5.0781 -1.367,-7.4707 l 4.687,-3.7597 c 0.977,-0.7324 1.367,-1.8555 0.977,-3.0762 -0.44,-1.2207 -1.465,-1.9043 -2.735,-1.8555 l -6.005,0.2442 c -1.123,-2.3438 -2.295,-4.541 -3.76,-6.5918 l 3.174,-5.0781 c 0.683,-1.0254 0.586,-2.295 -0.196,-3.1739 -0.927,-1.123 -2.099,-1.416 -3.32,-0.8789 l -5.4199,2.1973 c -1.8066,-1.709 -3.8086,-3.3692 -5.8593,-4.7852 l 1.2207,-5.8105 c 0.2441,-1.3184 -0.1953,-2.4902 -1.2696,-3.0762 -1.2207,-0.6348 -2.3925,-0.5371 -3.3203,0.4395 l -4.3945,3.8574 c -2.2949,-1.0254 -4.6875,-1.8555 -7.1289,-2.5391 l -0.8301,-5.9082 c -0.1953,-1.2695 -1.0742,-2.1972 -2.2949,-2.3926 -1.3184,-0.1953 -2.3926,0.3418 -2.9297,1.4161 l -2.7832,5.3711 c -1.3184,-0.0977 -2.5391,-0.1954 -3.8086,-0.1954 -1.3184,0 -2.4902,0.0977 -3.8086,0.1954 l -2.832,-5.3711 c -0.5371,-1.0743 -1.6113,-1.6114 -2.9297,-1.4161 -1.2207,0.1954 -2.0996,1.1231 -2.2461,2.3926 l -0.8789,5.8594 c -2.4414,0.7324 -4.7852,1.5625 -7.1289,2.5879 l -4.3945,-3.8574 c -0.9278,-0.9766 -2.0997,-1.0743 -3.3204,-0.4395 -1.0742,0.586 -1.5136,1.7578 -1.2695,3.0762 l 1.2207,5.8105 c -2.0019,1.416 -4.0527,3.0762 -5.8594,4.7852 l -5.4199,-2.1973 c -1.2207,-0.5371 -2.3437,-0.2441 -3.2715,0.8789 -0.83,0.8789 -0.9277,2.1485 -0.2441,3.125 l 3.1738,5.127 c -1.416,2.0508 -2.6367,4.248 -3.7597,6.5918 l -5.9571,-0.2442 c -1.2695,-0.0488 -2.3437,0.6348 -2.7832,1.8555 -0.3906,1.2207 -0.0488,2.3438 0.9766,3.0762 l 4.6875,3.7597 c -0.6348,2.3926 -1.1231,4.834 -1.2696,7.4707 l -5.7128,1.8067 c -1.26957,0.3906 -1.95317,1.3183 -1.95317,2.6367 0,1.3184 0.6836,2.2461 1.95317,2.6856 l 5.7128,1.8066 c 0.1465,2.5879 0.6348,5.1269 1.2696,7.4707 l -4.6875,3.7109 c -0.9766,0.7813 -1.3184,1.9532 -0.9766,3.1739 0.4395,1.2207 1.5137,1.9043 2.7832,1.8554 l 5.9571,-0.2929 c 1.123,2.3437 2.3437,4.541 3.7597,6.59176 l -3.1738,5.07812 c -0.6836,1.07422 -0.5859,2.343754 0.2441,3.222661 0.9278,1.123049 2.0508,1.367189 3.2715,0.878909 l 5.4199,-2.29493 c 1.8067,1.806646 3.8575,3.41797 5.8594,4.83399 l -1.2207,5.85937 c -0.2441,1.26952 0.1953,2.44142 1.2695,3.02732 1.2207,0.6836 2.3926,0.4883 3.3204,-0.3906 l 4.3945,-3.95508 c 2.3437,1.0254 4.6875,1.95308 7.1289,2.58788 l 0.8789,5.9082 c 0.1465,1.3184 1.0254,2.1973 2.2461,2.4414 1.3184,0.1953 2.3926,-0.3906 2.9297,-1.4648 l 2.832,-5.3711 c 1.2695,0.0976 2.4902,0.2441 3.8086,0.2441 z m 12.2559,-50.6836 c -2.2461,-6.1523 -6.7871,-9.5214 -12.3536,-9.5214 -0.8789,0 -1.8066,0.0976 -3.4179,0.4394 L 46.1914,-71.1426 c 5.2734,-2.5879 11.1816,-4.0039 17.5293,-4.0039 21.2891,0 37.9883,16.1621 39.5503,37.0117 z m -51.9043,3.125 c 0,-13.5742 6.4453,-25.5371 16.5039,-32.7636 l 14.1601,24.0722 c -2.6855,2.7344 -3.9062,5.7129 -3.9062,8.8867 0,3.0762 1.1719,5.9083 3.8574,8.7403 L 40.2832,-2.44141 C 30.3711,-9.7168 24.0723,-21.5332 24.0723,-35.0098 Z m 33.6914,0.1465 c 0,-3.3203 2.7832,-5.9082 5.957,-5.9082 3.2715,0 6.0059,2.5879 6.0059,5.9082 0,3.2715 -2.7344,5.9571 -6.0059,5.9571 -3.1738,0 -5.957,-2.6856 -5.957,-5.9571 z m 5.957,39.99025 c -6.4941,0 -12.5488,-1.51367 -17.8711,-4.150388 L 60.2051,-22.5098 c 1.5137,0.3907 2.539,0.4883 3.4179,0.4883 5.6153,0 10.1563,-3.4668 12.3536,-9.7656 H 103.223 C 101.66,-11.0352 85.0098,5.12695 63.7207,5.12695 Z"/>
  </g>
</svg>

<svg viewBox="0 0 212.646728515625 159.98291015625" xmlns="http://www.w3.org/2000/svg">
    <g transform="matrix(1 0 0 1 42.60272705078114 115.221435546875)">
        <path d="M 63.7207 12.5488 C 64.9902 12.5488 66.2109 12.4023 67.5293 12.3047 L 70.3125 17.6758 C 70.8496 18.75 71.9238 19.3359 73.291 19.1406 C 74.5117 18.8965 75.3418 18.0176 75.5371 16.6992 L 76.3672 10.791 C 78.8086 10.1562 81.2012 9.22852 83.4961 8.20312 L 87.8906 12.1582 C 88.8184 13.0371 89.9902 13.2324 91.2109 12.5488 C 92.2852 11.9629 92.7246 10.791 92.4805 9.52148 L 91.2598 3.66211 C 93.3105 2.24609 95.3125 0.634766 97.1191 -1.17188 L 102.539 1.12305 C 103.76 1.61133 104.932 1.36719 105.859 0.244141 C 106.689 -0.634766 106.787 -1.9043 106.055 -2.97852 L 102.881 -8.05664 C 104.346 -10.1074 105.518 -12.3047 106.641 -14.6484 L 112.646 -14.3555 C 113.916 -14.3066 114.941 -14.9902 115.381 -16.2109 C 115.771 -17.4316 115.43 -18.6035 114.404 -19.3848 L 109.717 -23.0957 C 110.352 -25.4395 110.84 -27.9785 111.084 -30.6152 L 116.699 -32.373 C 117.969 -32.8125 118.701 -33.7402 118.701 -35.0586 C 118.701 -36.3281 117.969 -37.2559 116.699 -37.6953 L 111.084 -39.502 C 110.84 -42.1387 110.352 -44.5801 109.717 -46.9727 L 114.404 -50.7324 C 115.381 -51.4648 115.771 -52.5879 115.381 -53.8086 C 114.941 -55.0293 113.916 -55.7129 112.646 -55.6641 L 106.641 -55.4199 C 105.518 -57.7637 104.346 -59.9609 102.881 -62.0117 L 106.055 -67.0898 C 106.738 -68.1152 106.641 -69.3848 105.859 -70.2637 C 104.932 -71.3867 103.76 -71.6797 102.539 -71.1426 L 97.1191 -68.9453 C 95.3125 -70.6543 93.3105 -72.3145 91.2598 -73.7305 L 92.4805 -79.541 C 92.7246 -80.8594 92.2852 -82.0312 91.2109 -82.6172 C 89.9902 -83.252 88.8184 -83.1543 87.8906 -82.1777 L 83.4961 -78.3203 C 81.2012 -79.3457 78.8086 -80.1758 76.3672 -80.8594 L 75.5371 -86.7676 C 75.3418 -88.0371 74.4629 -88.9648 73.2422 -89.1602 C 71.9238 -89.3555 70.8496 -88.8184 70.3125 -87.7441 L 67.5293 -82.373 C 66.2109 -82.4707 64.9902 -82.5684 63.7207 -82.5684 C 62.4023 -82.5684 61.2305 -82.4707 59.9121 -82.373 L 57.0801 -87.7441 C 56.543 -88.8184 55.4688 -89.3555 54.1504 -89.1602 C 52.9297 -88.9648 52.0508 -88.0371 51.9043 -86.7676 L 51.0254 -80.9082 C 48.584 -80.1758 46.2402 -79.3457 43.8965 -78.3203 L 39.502 -82.1777 C 38.5742 -83.1543 37.4023 -83.252 36.1816 -82.6172 C 35.1074 -82.0312 34.668 -80.8594 34.9121 -79.541 L 36.1328 -73.7305 C 34.1309 -72.3145 32.0801 -70.6543 30.2734 -68.9453 L 24.8535 -71.1426 C 23.6328 -71.6797 22.5098 -71.3867 21.582 -70.2637 C 20.752 -69.3848 20.6543 -68.1152 21.3379 -67.1387 L 24.5117 -62.0117 C 23.0957 -59.9609 21.875 -57.7637 20.752 -55.4199 L 14.7949 -55.6641 C 13.5254 -55.7129 12.4512 -55.0293 12.0117 -53.8086 C 11.6211 -52.5879 11.9629 -51.4648 12.9883 -50.7324 L 17.6758 -46.9727 C 17.041 -44.5801 16.5527 -42.1387 16.4062 -39.502 L 10.6934 -37.6953 C 9.42383 -37.3047 8.74023 -36.377 8.74023 -35.0586 C 8.74023 -33.7402 9.42383 -32.8125 10.6934 -32.373 L 16.4062 -30.5664 C 16.5527 -27.9785 17.041 -25.4395 17.6758 -23.0957 L 12.9883 -19.3848 C 12.0117 -18.6035 11.6699 -17.4316 12.0117 -16.2109 C 12.4512 -14.9902 13.5254 -14.3066 14.7949 -14.3555 L 20.752 -14.6484 C 21.875 -12.3047 23.0957 -10.1074 24.5117 -8.05664 L 21.3379 -2.97852 C 20.6543 -1.9043 20.752 -0.634766 21.582 0.244141 C 22.5098 1.36719 23.6328 1.61133 24.8535 1.12305 L 30.2734 -1.17188 C 32.0801 0.634766 34.1309 2.24609 36.1328 3.66211 L 34.9121 9.52148 C 34.668 10.791 35.1074 11.9629 36.1816 12.5488 C 37.4023 13.2324 38.5742 13.0371 39.502 12.1582 L 43.8965 8.20312 C 46.2402 9.22852 48.584 10.1562 51.0254 10.791 L 51.9043 16.6992 C 52.0508 18.0176 52.9297 18.8965 54.1504 19.1406 C 55.4688 19.3359 56.543 18.75 57.0801 17.6758 L 59.9121 12.3047 C 61.1816 12.4023 62.4023 12.5488 63.7207 12.5488 Z M 75.9766 -38.1348 C 73.7305 -44.2871 69.1895 -47.6562 63.623 -47.6562 C 62.7441 -47.6562 61.8164 -47.5586 60.2051 -47.2168 L 46.1914 -71.1426 C 51.4648 -73.7305 57.373 -75.1465 63.7207 -75.1465 C 85.0098 -75.1465 101.709 -58.9844 103.271 -38.1348 Z M 24.0723 -35.0098 C 24.0723 -48.584 30.5176 -60.5469 40.5762 -67.7734 L 54.7363 -43.7012 C 52.0508 -40.9668 50.8301 -37.9883 50.8301 -34.8145 C 50.8301 -31.7383 52.002 -28.9062 54.6875 -26.0742 L 40.2832 -2.44141 C 30.3711 -9.7168 24.0723 -21.5332 24.0723 -35.0098 Z M 57.7637 -34.8633 C 57.7637 -38.1836 60.5469 -40.7715 63.7207 -40.7715 C 66.9922 -40.7715 69.7266 -38.1836 69.7266 -34.8633 C 69.7266 -31.5918 66.9922 -28.9062 63.7207 -28.9062 C 60.5469 -28.9062 57.7637 -31.5918 57.7637 -34.8633 Z M 63.7207 5.12695 C 57.2266 5.12695 51.1719 3.61328 45.8496 0.976562 L 60.2051 -22.5098 C 61.7188 -22.1191 62.7441 -22.0215 63.623 -22.0215 C 69.2383 -22.0215 73.7793 -25.4883 75.9766 -31.7871 L 103.223 -31.7871 C 101.66 -11.0352 85.0098 5.12695 63.7207 5.12695 Z" />
    </g>
</svg>
